src/lib/packages/icons/src/assets/filled/wallet.svg

<svg xmlns="http://www.w3.org/2000/svg" width="24" height="24" fill="none"><path fill="currentColor" d="M13.25 14c0 1.79 1.46 3.25 3.25 3.25H21V18c0 2-1 3-3 3H6c-2 0-3-1-3-3V5c0 1.1.9 2 2 2h13c2 0 3 1 3 3v.75h-4.5c-1.79 0-3.25 1.46-3.25 3.25Zm3.25-1.75c-.96 0-1.75.79-1.75 1.75s.79 1.75 1.75 1.75H21v-3.5h-4.5Zm.52 2.75c-.55 0-1.01-.45-1.01-1s.45-1 1-1h.01c.55 0 1 .45 1 1s-.45 1-1 1ZM15 3H5.75a1.25 1.25 0 0 0 0 2.5h12.22C17.82 3.83 16.83 3 15 3Z"/></svg>

<svg width="24" height="24" viewBox="0 0 24 24" fill="none" xmlns="http://www.w3.org/2000/svg">
<path d="M13.25 14C13.25 15.79 14.71 17.25 16.5 17.25H21V18C21 20 20 21 18 21H6C4 21 3 20 3 18V5C3 6.1 3.9 7 5 7H18C20 7 21 8 21 10V10.75H16.5C14.71 10.75 13.25 12.21 13.25 14ZM16.5 12.25C15.54 12.25 14.75 13.04 14.75 14C14.75 14.96 15.54 15.75 16.5 15.75H21V12.25H16.5ZM17.02 15C16.47 15 16.01 14.55 16.01 14C16.01 13.45 16.46 13 17.01 13H17.02C17.57 13 18.02 13.45 18.02 14C18.02 14.55 17.57 15 17.02 15ZM15 3H5.75C5.06 3 4.5 3.56 4.5 4.25C4.5 4.94 5.06 5.5 5.75 5.5H17.97C17.82 3.83 16.83 3 15 3Z" fill="currentColor"/>
</svg>
